optimized/solid/exclamation.svg

<svg xmlns="http://www.w3.org/2000/svg" viewBox="0 0 20 20" fill="currentColor" aria-hidden="true">
  <path fill-rule="evenodd" d="M8.25706 3.09882C9.02167 1.73952 10.9788 1.73952 11.7434 3.09882L17.3237 13.0194C18.0736 14.3526 17.1102 15.9999 15.5805 15.9999H4.4199C2.89025 15.9999 1.92682 14.3526 2.67675 13.0194L8.25706 3.09882ZM11.0001 13C11.0001 13.5523 10.5524 14 10.0001 14C9.44784 14 9.00012 13.5523 9.00012 13C9.00012 12.4477 9.44784 12 10.0001 12C10.5524 12 11.0001 12.4477 11.0001 13ZM10.0001 5C9.44784 5 9.00012 5.44772 9.00012 6V9C9.00012 9.55228 9.44784 10 10.0001 10C10.5524 10 11.0001 9.55228 11.0001 9V6C11.0001 5.44772 10.5524 5 10.0001 5Z" clip-rule="evenodd"/>
</svg>

<svg xmlns="http://www.w3.org/2000/svg" viewBox="0 0 20 20" fill="currentColor" aria-hidden="true">
  <path fill-rule="evenodd" d="M8.257 3.099c.765-1.36 2.722-1.36 3.486 0l5.58 9.92c.75 1.334-.213 2.98-1.742 2.98H4.42c-1.53 0-2.493-1.646-1.743-2.98l5.58-9.92zM11 13a1 1 0 11-2 0 1 1 0 012 0zm-1-8a1 1 0 00-1 1v3a1 1 0 002 0V6a1 1 0 00-1-1z" clip-rule="evenodd"/>
</svg>
